;FLAVOR:Marlin
;TIME:6590
;Filament used: 6.85963m
;Layer height: 0.3
;MINX:123.247
;MINY:89.2
;MINZ:0.3
;MAXX:176.753
;MAXY:210.8
;MAXZ:14.4
;Generated with Cura_SteamEngine 4.2.1
M140 S80
M105
M190 S80
M82 ;absolute extrusion mode
; start_gcode
M117 Start Clean        ; Indicate nozzle clean in progress on LCD
;
M104 S230.0 
M109 S230.0 
M109 R230.0 
;
M107                    ; Turn layer fan off
G21                     ; Set to metric [change to G20 if you want Imperial]
G90                     ; Force coordinates to be absolute relative to the origin
G28                     ; Home X/Y/Z axis
;
G1 X3 Y1 Z15 F9000      ; Move safe Z height to shear strings
G0 X1 Y1 Z0.2 F9000     ; Move in 1mm from edge and up [z] 0.2mm
G92 E0                  ; Set extruder to [0] zero
G1 X100 E12 F500        ; Extrude 30mm filiment along X axis 100mm long to prime and clean the nozzle
G92 E0                  ; Reset extruder to [0] zero end of cleaning run
G1 E-1 F500             ; Retract filiment by 1 mm to reduce string effect
G1 X180 F4000           ; quick wipe away from the filament line / purge
M117 End Clean          ; Indicate nozzle clean in progress on LCD
;
M117 Printing...
; Begin printing with sliced GCode after here
;
M141 S28
G92 E0
G92 E0
G1 F2400 E-6.8
;LAYER_COUNT:48
;LAYER:0
M107
M204 S500
M205 X8 Y8
G0 F3600 X124.644 Y92.546 Z0.3
;TYPE:SKIRT
G1 F2400 E0
G1 F1800 X125.127 Y91.922 E0.03937
G1 X125.671 Y91.349 E0.07879
G1 X126.27 Y90.834 E0.1182
G1 X126.917 Y90.383 E0.15754
G1 X127.608 Y89.999 E0.19698
G1 X128.333 Y89.687 E0.23636
G1 X129.086 Y89.45 E0.27575
G1 X129.86 Y89.291 E0.31517
G1 X130.645 Y89.21 E0.35454
G1 X131.047 Y89.2 E0.3746
G1 X168.952 Y89.2 E2.26569
G1 X169.741 Y89.24 E2.3051
G1 X170.521 Y89.359 E2.34447
G1 X171.286 Y89.557 E2.38389
G1 X172.026 Y89.831 E2.42326
G1 X172.735 Y90.179 E2.46266
G1 X173.406 Y90.597 E2.5021
G1 X174.03 Y91.08 E2.54147
G1 X174.603 Y91.623 E2.58086
G1 X175.118 Y92.222 E2.62027
G1 X175.569 Y92.87 E2.65965
G1 X175.953 Y93.561 E2.69909
G1 X176.265 Y94.286 E2.73847
G1 X176.502 Y95.039 E2.77786
G1 X176.661 Y95.813 E2.81728
G1 X176.742 Y96.598 E2.85665
G1 X176.752 Y97 E2.87671
G1 X176.753 Y151.452 E5.59333
G1 X176.752 Y203 E8.16507
G1 X176.712 Y203.789 E8.20449
G1 X176.593 Y204.569 E8.24385
G1 X176.395 Y205.334 E8.28327
G1 X176.121 Y206.074 E8.32264
G1 X175.773 Y206.783 E8.36205
G1 X175.356 Y207.454 E8.40146
G1 X174.872 Y208.078 E8.44086
G1 X174.329 Y208.651 E8.48024
G1 X173.73 Y209.166 E8.51965
G1 X173.082 Y209.617 E8.55904
G1 X172.392 Y210.001 E8.59844
G1 X171.666 Y210.313 E8.63786
G1 X170.913 Y210.55 E8.67725
G1 X170.139 Y210.709 E8.71667
G1 X169.354 Y210.79 E8.75604
G1 X168.952 Y210.8 E8.7761
G1 X131.047 Y210.8 E10.66719
G1 X130.258 Y210.76 E10.7066
G1 X129.478 Y210.641 E10.74597
G1 X128.713 Y210.443 E10.78539
G1 X127.973 Y210.169 E10.82476
G1 X127.264 Y209.821 E10.86416
G1 X126.593 Y209.403 E10.9036
G1 X125.969 Y208.92 E10.94297
G1 X125.396 Y208.377 E10.98236
G1 X124.881 Y207.778 E11.02177
G1 X124.43 Y207.13 E11.06115
G1 X124.046 Y206.439 E11.10059
G1 X123.734 Y205.714 E11.13997
G1 X123.497 Y204.961 E11.17936
G1 X123.338 Y204.187 E11.21878
G1 X123.257 Y203.402 E11.25815
G1 X123.247 Y203 E11.27821
G1 X123.248 Y151.453 E13.8499
G1 X123.247 Y97 E16.56657
G1 X123.287 Y96.211 E16.60599
G1 X123.407 Y95.431 E16.64536
G1 X123.604 Y94.666 E16.68477
G1 X123.878 Y93.926 E16.72414
G1 X124.226 Y93.216 E16.76359
G1 X124.644 Y92.546 E16.80298
G0 F3600 X125.041 Y92.677
G1 F1800 X125.522 Y92.077 E16.84135
G1 X126.063 Y91.53 E16.87973
G1 X126.658 Y91.042 E16.91812
G1 X127.3 Y90.619 E16.95648
G1 X127.983 Y90.264 E16.99488
G1 X128.699 Y89.983 E17.03326
G1 X129.44 Y89.777 E17.07163
G1 X130.198 Y89.649 E17.10998
G1 X131.047 Y89.6 E17.15241
G1 X168.952 Y89.6 E19.0435
G1 X169.72 Y89.64 E19.08186
G1 X170.48 Y89.759 E19.12024
G1 X171.223 Y89.957 E19.1586
G1 X171.942 Y90.231 E19.19699
G1 X172.628 Y90.578 E19.23535
G1 X173.275 Y90.994 E19.27372
G1 X173.875 Y91.475 E19.31209
G1 X174.422 Y92.016 E19.35047
G1 X174.91 Y92.611 E19.38886
G1 X175.333 Y93.253 E19.42722
G1 X175.688 Y93.936 E19.46562
G1 X175.969 Y94.651 E19.50395
G1 X176.175 Y95.393 E19.54237
G1 X176.303 Y96.151 E19.58072
G1 X176.352 Y97 E19.62315
G1 X176.353 Y151.452 E22.33977
G1 X176.352 Y203 E24.91151
G1 X176.312 Y203.768 E24.94988
G1 X176.193 Y204.528 E24.98825
G1 X175.995 Y205.271 E25.02662
G1 X175.721 Y205.99 E25.065
G1 X175.374 Y206.676 E25.10336
G1 X174.958 Y207.323 E25.14173
G1 X174.477 Y207.923 E25.1801
G1 X173.936 Y208.47 E25.21848
G1 X173.341 Y208.958 E25.25687
G1 X172.699 Y209.381 E25.29523
G1 X172.016 Y209.736 E25.33363
G1 X171.301 Y210.017 E25.37196
G1 X170.56 Y210.223 E25.41033
G1 X169.801 Y210.351 E25.44873
G1 X168.952 Y210.4 E25.49116
G1 X131.047 Y210.4 E27.38225
G1 X130.279 Y210.36 E27.42062
G1 X129.519 Y210.241 E27.45899
G1 X128.776 Y210.043 E27.49736
G1 X128.057 Y209.769 E27.53574
G1 X127.371 Y209.422 E27.5741
G1 X126.724 Y209.006 E27.61247
G1 X126.124 Y208.525 E27.65084
G1 X125.577 Y207.984 E27.68922
G1 X125.089 Y207.389 E27.72761
G1 X124.666 Y206.747 E27.76597
G1 X124.311 Y206.064 E27.80437
G1 X124.03 Y205.349 E27.8427
G1 X123.824 Y204.607 E27.88112
G1 X123.696 Y203.849 E27.91947
G1 X123.647 Y203 E27.9619
G1 X123.648 Y151.453 E30.53359
G1 X123.647 Y97 E33.25026
G1 X123.687 Y96.232 E33.28863
G1 X123.806 Y95.472 E33.32701
G1 X124.004 Y94.729 E33.36537
G1 X124.278 Y94.01 E33.40376
G1 X124.625 Y93.323 E33.44215
G1 X125.041 Y92.677 E33.48049
G0 F3600 X125.439 Y92.811
G1 F1800 X125.918 Y92.237 E33.51779
G1 X126.455 Y91.716 E33.55511
G1 X127.045 Y91.257 E33.59241
G1 X127.681 Y90.862 E33.62976
G1 X128.355 Y90.538 E33.66707
G1 X129.06 Y90.288 E33.70439
G1 X129.788 Y90.114 E33.74173
G1 X130.53 Y90.019 E33.77905
G1 X131.047 Y90 E33.80486
G1 X168.952 Y90 E35.69595
G1 X169.699 Y90.04 E35.73327
G1 X170.437 Y90.159 E35.77057
G1 X171.159 Y90.357 E35.80792
G1 X171.855 Y90.63 E35.84522
G1 X172.518 Y90.977 E35.88255
G1 X173.141 Y91.392 E35.9199
G1 X173.715 Y91.871 E35.95719
G1 X174.236 Y92.408 E35.99452
G1 X174.695 Y92.998 E36.03182
G1 X175.09 Y93.634 E36.06917
G1 X175.414 Y94.308 E36.10648
G1 X175.664 Y95.013 E36.1438
G1 X175.838 Y95.741 E36.18114
G1 X175.933 Y96.483 E36.21846
G1 X175.952 Y97 E36.24427
G1 X175.953 Y151.452 E38.96089
G1 X175.952 Y203 E41.53263
G1 X175.912 Y203.747 E41.56995
G1 X175.793 Y204.485 E41.60725
G1 X175.595 Y205.207 E41.6446
G1 X175.322 Y205.903 E41.6819
G1 X174.975 Y206.566 E41.71923
G1 X174.56 Y207.189 E41.75658
G1 X174.081 Y207.763 E41.79388
G1 X173.544 Y208.283 E41.83117
G1 X172.954 Y208.743 E41.86849
G1 X172.318 Y209.138 E41.90585
G1 X171.644 Y209.462 E41.94316
G1 X170.939 Y209.712 E41.98047
G1 X170.211 Y209.886 E42.01782
G1 X169.469 Y209.981 E42.05514
G1 X168.952 Y210 E42.08095
G1 X131.047 Y210 E43.97204
G1 X130.3 Y209.96 E44.00936
G1 X129.562 Y209.841 E44.04665
G1 X128.84 Y209.643 E44.084
G1 X128.144 Y209.37 E44.1213
G1 X127.481 Y209.023 E44.15864
G1 X126.858 Y208.608 E44.19598
G1 X126.284 Y208.129 E44.23328
G1 X125.763 Y207.592 E44.27061
G1 X125.304 Y207.002 E44.3079
G1 X124.909 Y206.366 E44.34525
G1 X124.585 Y205.692 E44.38256
G1 X124.335 Y204.987 E44.41988
G1 X124.161 Y204.259 E44.45723
G1 X124.066 Y203.517 E44.49455
G1 X124.047 Y203 E44.52036
G1 X124.048 Y151.453 E47.09205
G1 X124.047 Y97 E49.80872
G1 X124.087 Y96.253 E49.84604
G1 X124.206 Y95.514 E49.88338
G1 X124.404 Y94.793 E49.92069
G1 X124.678 Y94.097 E49.958
G1 X125.024 Y93.433 E49.99536
G1 X125.439 Y92.811 E50.03266
G0 F3600 X125.836 Y92.95
G1 F1800 X126.312 Y92.402 E50.06888
G1 X126.846 Y91.909 E50.10514
G1 X127.431 Y91.479 E50.14136
G1 X128.06 Y91.115 E50.17761
G1 X128.725 Y90.822 E50.21387
G1 X129.418 Y90.604 E50.25011
G1 X130.13 Y90.464 E50.28631
G1 X131.047 Y90.4 E50.33218
G1 X168.952 Y90.4 E52.22326
G1 X169.677 Y90.44 E52.25949
G1 X170.394 Y90.559 E52.29575
G1 X171.093 Y90.757 E52.33199
G1 X171.766 Y91.03 E52.36823
G1 X172.405 Y91.375 E52.40446
G1 X173.002 Y91.789 E52.4407
G1 X173.55 Y92.265 E52.47692
G1 X174.043 Y92.799 E52.51318
G1 X174.473 Y93.384 E52.5494
G1 X174.837 Y94.013 E52.58565
G1 X175.13 Y94.678 E52.62191
G1 X175.348 Y95.371 E52.65815
G1 X175.488 Y96.083 E52.69436
G1 X175.552 Y97 E52.74022
G1 X175.553 Y151.452 E55.45684
G1 X175.552 Y203 E58.02858
G1 X175.512 Y203.725 E58.0648
G1 X175.393 Y204.442 E58.10106
G1 X175.195 Y205.141 E58.13731
G1 X174.922 Y205.814 E58.17354
G1 X174.577 Y206.453 E58.20977
G1 X174.163 Y207.05 E58.24602
G1 X173.687 Y207.598 E58.28223
G1 X173.153 Y208.091 E58.31849
G1 X172.568 Y208.521 E58.35471
G1 X171.939 Y208.885 E58.39097
G1 X171.275 Y209.178 E58.42718
G1 X170.582 Y209.396 E58.46342
G1 X169.869 Y209.536 E58.49967
G1 X168.952 Y209.6 E58.54553
G1 X131.047 Y209.6 E60.43662
G1 X130.322 Y209.56 E60.47285
G1 X129.605 Y209.441 E60.50911
G1 X128.906 Y209.243 E60.54535
G1 X128.233 Y208.97 E60.58159
G1 X127.594 Y208.625 E60.61782
G1 X126.997 Y208.211 E60.65406
G1 X126.449 Y207.735 E60.69027
G1 X125.956 Y207.201 E60.72653
G1 X125.526 Y206.616 E60.76276
G1 X125.162 Y205.987 E60.79901
G1 X124.869 Y205.322 E60.83527
G1 X124.651 Y204.629 E60.87151
G1 X124.511 Y203.917 E60.90771
G1 X124.447 Y203 E60.95357
G1 X124.448 Y151.453 E63.52526
G1 X124.447 Y97 E66.24193
G1 X124.487 Y96.275 E66.27816
G1 X124.606 Y95.558 E66.31442
G1 X124.804 Y94.859 E66.35067
G1 X125.077 Y94.186 E66.3869
G1 X125.422 Y93.547 E66.42313
G1 X125.836 Y92.95 E66.45937
G0 F3600 X125.821 Y93.664
G1 F1800 X126.233 Y93.093 E66.4945
G1 X126.706 Y92.573 E66.52957
G1 X127.236 Y92.109 E66.56472
G1 X127.815 Y91.709 E66.59983
G1 X128.436 Y91.377 E66.63496
G1 X129.09 Y91.117 E66.67007
G1 X129.77 Y90.933 E66.70521
G1 X130.466 Y90.827 E66.74034
G1 X131.047 Y90.8 E66.76936
G1 X168.952 Y90.8 E68.66044
G1 X169.655 Y90.84 E68.69557
G1 X170.349 Y90.959 E68.7307
G1 X171.024 Y91.157 E68.7658
G1 X171.673 Y91.429 E68.80091
G1 X172.287 Y91.774 E68.83604
G1 X172.858 Y92.185 E68.87114
G1 X173.379 Y92.659 E68.90628
G1 X173.843 Y93.189 E68.94143
G1 X174.243 Y93.768 E68.97653
G1 X174.575 Y94.389 E69.01167
G1 X174.835 Y95.043 E69.04678
G1 X175.019 Y95.723 E69.08192
G1 X175.125 Y96.419 E69.11705
G1 X175.152 Y97 E69.14607
G1 X175.153 Y151.452 E71.86269
G1 X175.152 Y203 E74.43443
G1 X175.112 Y203.703 E74.46956
G1 X174.993 Y204.397 E74.50469
G1 X174.795 Y205.072 E74.53978
G1 X174.523 Y205.721 E74.57489
G1 X174.178 Y206.335 E74.61002
G1 X173.767 Y206.906 E74.64512
G1 X173.293 Y207.427 E74.68026
G1 X172.763 Y207.891 E74.71541
G1 X172.184 Y208.291 E74.75052
G1 X171.563 Y208.623 E74.78565
G1 X170.909 Y208.883 E74.82076
G1 X170.229 Y209.067 E74.85591
G1 X169.533 Y209.173 E74.89103
G1 X168.952 Y209.2 E74.92005
G1 X131.047 Y209.2 E76.81114
G1 X130.344 Y209.16 E76.84627
G1 X129.65 Y209.041 E76.88139
G1 X128.975 Y208.843 E76.91649
G1 X128.326 Y208.571 E76.9516
G1 X127.712 Y208.226 E76.98673
G1 X127.141 Y207.815 E77.02183
G1 X126.62 Y207.341 E77.05697
G1 X126.156 Y206.811 E77.09212
G1 X125.756 Y206.232 E77.12723
G1 X125.424 Y205.611 E77.16236
G1 X125.164 Y204.957 E77.19747
G1 X124.98 Y204.277 E77.23262
G1 X124.874 Y203.581 E77.26774
G1 X124.847 Y203 E77.29676
G1 X124.848 Y151.453 E79.86845
G1 X124.847 Y97 E82.58512
G1 X124.887 Y96.297 E82.62025
G1 X125.006 Y95.603 E82.65538
G1 X125.204 Y94.927 E82.69052
G1 X125.476 Y94.278 E82.72563
G1 X125.821 Y93.664 E82.76076
G0 F3600 X126.219 Y93.786
G1 F1800 X126.629 Y93.242 E82.79475
G1 X127.1 Y92.75 E82.82873
G1 X127.625 Y92.317 E82.86268
G1 X128.197 Y91.948 E82.89664
G1 X128.809 Y91.649 E82.93062
G1 X129.451 Y91.424 E82.96456
G1 X130.116 Y91.275 E82.99856
G1 X131.047 Y91.2 E83.04516
G1 X168.952 Y91.2 E84.93625
G1 X169.632 Y91.24 E84.97023
G1 X170.302 Y91.359 E85.00418
G1 X170.954 Y91.556 E85.03816
G1 X171.578 Y91.828 E85.07212
G1 X172.166 Y92.172 E85.10611
G1 X172.71 Y92.582 E85.1401
G1 X173.201 Y93.053 E85.17404
G1 X173.635 Y93.578 E85.20802
G1 X174.004 Y94.15 E85.24198
G1 X174.303 Y94.762 E85.27597
G1 X174.528 Y95.404 E85.30991
G1 X174.677 Y96.069 E85.34391
G1 X174.752 Y97 E85.3905
G1 X174.753 Y151.452 E88.10712
G1 X174.752 Y203 E90.67886
G1 X174.712 Y203.68 E90.71285
G1 X174.593 Y204.35 E90.7468
G1 X174.396 Y205.002 E90.78078
G1 X174.124 Y205.626 E90.81474
G1 X173.78 Y206.214 E90.84873
G1 X173.37 Y206.757 E90.88267
G1 X172.9 Y207.249 E90.91662
G1 X172.374 Y207.683 E90.95064
G1 X171.802 Y208.052 E90.9846
G1 X171.19 Y208.351 E91.01858
G1 X170.548 Y208.576 E91.05252
G1 X169.883 Y208.725 E91.08652
G1 X168.952 Y208.8 E91.13312
G1 X131.047 Y208.8 E93.02421
G1 X130.367 Y208.76 E93.05819
G1 X129.697 Y208.641 E93.09214
G1 X129.045 Y208.444 E93.12612
G1 X128.421 Y208.172 E93.16008
G1 X127.833 Y207.828 E93.19407
G1 X127.289 Y207.418 E93.22805
G1 X126.798 Y206.947 E93.262
G1 X126.364 Y206.422 E93.29598
G1 X125.995 Y205.85 E93.32994
G1 X125.696 Y205.238 E93.36392
G1 X125.471 Y204.596 E93.39786
G1 X125.322 Y203.931 E93.43186
G1 X125.247 Y203 E93.47846
G1 X125.248 Y151.453 E96.05015
G1 X125.247 Y97 E98.76682
G1 X125.287 Y96.32 E98.80081
G1 X125.406 Y95.65 E98.83476
G1 X125.603 Y94.998 E98.86874
G1 X125.876 Y94.374 E98.90272
G1 X126.219 Y93.786 E98.93668
G0 F3600 X126.617 Y93.912
G1 F1800 X127.025 Y93.397 E98.96946
G1 X127.492 Y92.935 E99.00223
G1 X128.012 Y92.534 E99.03499
G1 X128.577 Y92.198 E99.06779
G1 X129.178 Y91.934 E99.10054
G1 X129.807 Y91.744 E99.13332
G1 X130.454 Y91.633 E99.16607
G1 X131.047 Y91.6 E99.1957
G1 X168.952 Y91.6 E101.08679
G1 X169.608 Y91.64 E101.11958
G1 X170.254 Y91.759 E101.15235
G1 X170.881 Y91.956 E101.18514
G1 X171.479 Y92.228 E101.21791
G1 X172.04 Y92.57 E101.25069
G1 X172.555 Y92.978 E101.28347
G1 X173.017 Y93.445 E101.31625
G1 X173.418 Y93.965 E101.34901
G1 X173.754 Y94.529 E101.38176
G1 X174.018 Y95.131 E101.41455
G1 X174.208 Y95.76 E101.44734
G1 X174.319 Y96.407 E101.48009
G1 X174.352 Y97 E101.50972
G1 X174.353 Y151.452 E104.22634
G1 X174.352 Y203 E106.79808
G1 X174.312 Y203.656 E106.83087
G1 X174.193 Y204.302 E106.86364
G1 X173.996 Y204.928 E106.89638
G1 X173.724 Y205.527 E106.9292
G1 X173.382 Y206.088 E106.96198
G1 X172.975 Y206.603 E106.99473
G1 X172.507 Y207.064 E107.0275
G1 X171.987 Y207.466 E107.06029
G1 X171.423 Y207.802 E107.09305
G1 X170.821 Y208.066 E107.12584
G1 X170.192 Y208.256 E107.15862
G1 X169.545 Y208.367 E107.19137
G1 X168.952 Y208.4 E107.221
G1 X131.047 Y208.4 E109.11209
G1 X130.391 Y208.36 E109.14488
G1 X129.745 Y208.241 E109.17765
G1 X129.118 Y208.044 E109.21044
G1 X128.52 Y207.772 E109.24322
G1 X127.959 Y207.43 E109.276
G1 X127.444 Y207.022 E109.30878
G1 X126.982 Y206.555 E109.34155
G1 X126.581 Y206.035 E109.37431
G1 X126.245 Y205.471 E109.40706
G1 X125.981 Y204.869 E109.43986
G1 X125.791 Y204.24 E109.47264
G1 X125.68 Y203.593 E109.50539
G1 X125.647 Y203 E109.53502
G1 X125.648 Y151.453 E112.10671
G1 X125.647 Y97 E114.82338
G1 X125.687 Y96.344 E114.85617
G1 X125.806 Y95.698 E114.88894
G1 X126.003 Y95.071 E114.92173
G1 X126.275 Y94.473 E114.95451
G1 X126.617 Y93.912 E114.98729
G0 F3600 X127.014 Y94.044
G1 F1800 X127.42 Y93.559 E115.01884
G1 X127.883 Y93.129 E115.05037
G1 X128.397 Y92.76 E115.08193
G1 X128.953 Y92.46 E115.11345
G1 X129.542 Y92.232 E115.14496
G1 X130.156 Y92.08 E115.17652
G1 X131.047 Y92 E115.22115
G1 X168.952 Y92 E117.11224
G1 X169.583 Y92.04 E117.14378
G1 X170.204 Y92.159 E117.17533
G1 X170.804 Y92.356 E117.20683
G1 X171.376 Y92.627 E117.23841
G1 X171.908 Y92.967 E117.26991
G1 X172.393 Y93.373 E117.30147
G1 X172.823 Y93.836 E117.33299
G1 X173.192 Y94.35 E117.36456
G1 X173.492 Y94.906 E117.39608
G1 X173.72 Y95.495 E117.42759
G1 X173.872 Y96.109 E117.45915
G1 X173.952 Y97 E117.50378
G1 X173.953 Y151.452 E120.2204
G1 X173.952 Y203 E122.79214
G1 X173.912 Y203.631 E122.82368
G1 X173.793 Y204.252 E122.85523
G1 X173.596 Y204.852 E122.88673
G1 X173.325 Y205.424 E122.91831
G1 X172.985 Y205.956 E122.94981
G1 X172.579 Y206.441 E122.98137
G1 X172.116 Y206.871 E123.01289
G1 X171.602 Y207.24 E123.04446
G1 X171.046 Y207.54 E123.07598
G1 X170.457 Y207.768 E123.10749
G1 X169.843 Y207.92 E123.13905
G1 X168.952 Y208 E123.18368
G1 X131.047 Y208 E125.07476
G1 X130.416 Y207.96 E125.10631
G1 X129.795 Y207.841 E125.13785
G1 X129.195 Y207.644 E125.16936
G1 X128.623 Y207.373 E125.20094
