;FLAVOR:Marlin
;TIME:6575
;Filament used: 6.86241m
;Layer height: 0.3
;MINX:123.248
;MINY:89.2
;MINZ:0.3
;MAXX:176.753
;MAXY:210.8
;MAXZ:14.4
;Generated with Cura_SteamEngine 4.2.1
M140 S80
M105
M190 S80
M82 ;absolute extrusion mode
; start_gcode
M117 Start Clean        ; Indicate nozzle clean in progress on LCD
;
M104 S230.0 
M109 S230.0 
M109 R230.0 
;
M107                    ; Turn layer fan off
G21                     ; Set to metric [change to G20 if you want Imperial]
G90                     ; Force coordinates to be absolute relative to the origin
G28                     ; Home X/Y/Z axis
;
G1 X3 Y1 Z15 F9000      ; Move safe Z height to shear strings
G0 X1 Y1 Z0.2 F9000     ; Move in 1mm from edge and up [z] 0.2mm
G92 E0                  ; Set extruder to [0] zero
G1 X100 E12 F500        ; Extrude 30mm filiment along X axis 100mm long to prime and clean the nozzle
G92 E0                  ; Reset extruder to [0] zero end of cleaning run
G1 E-1 F500             ; Retract filiment by 1 mm to reduce string effect
G1 X180 F4000           ; quick wipe away from the filament line / purge
M117 End Clean          ; Indicate nozzle clean in progress on LCD
;
M117 Printing...
; Begin printing with sliced GCode after here
;
M141 S28
G92 E0
G92 E0
G1 F2400 E-6.8
;LAYER_COUNT:48
;LAYER:0
M107
M204 S500
M205 X8 Y8
G0 F3600 X124.645 Y92.546 Z0.3
;TYPE:SKIRT
G1 F2400 E0
G1 F1800 X125.128 Y91.922 E0.03937
G1 X125.671 Y91.349 E0.07875
G1 X126.27 Y90.834 E0.11816
G1 X126.918 Y90.383 E0.15755
G1 X127.609 Y89.999 E0.19699
G1 X128.334 Y89.687 E0.23637
G1 X129.087 Y89.45 E0.27575
G1 X129.861 Y89.291 E0.31517
G1 X130.646 Y89.21 E0.35455
G1 X131.048 Y89.2 E0.37461
G1 X168.953 Y89.2 E2.2657
G1 X169.742 Y89.24 E2.30511
G1 X170.522 Y89.359 E2.34447
G1 X171.287 Y89.557 E2.3839
G1 X172.027 Y89.831 E2.42327
G1 X172.736 Y90.179 E2.46267
G1 X173.407 Y90.597 E2.50211
G1 X174.031 Y91.08 E2.54148
G1 X174.604 Y91.623 E2.58086
G1 X175.119 Y92.222 E2.62027
G1 X175.57 Y92.87 E2.65966
G1 X175.954 Y93.561 E2.6991
G1 X176.266 Y94.286 E2.73848
G1 X176.503 Y95.039 E2.77786
G1 X176.662 Y95.813 E2.81728
G1 X176.743 Y96.598 E2.85666
G1 X176.753 Y97 E2.87672
G1 X176.753 Y151.452 E5.59334
G1 X176.752 Y203 E8.16508
G1 X176.712 Y203.789 E8.20449
G1 X176.593 Y204.569 E8.24386
G1 X176.395 Y205.334 E8.28328
G1 X176.121 Y206.074 E8.32265
G1 X175.773 Y206.783 E8.36205
G1 X175.355 Y207.454 E8.40149
G1 X174.872 Y208.078 E8.44086
G1 X174.329 Y208.651 E8.48025
G1 X173.73 Y209.166 E8.51966
G1 X173.082 Y209.617 E8.55904
G1 X172.391 Y210.001 E8.59848
G1 X171.666 Y210.313 E8.63786
G1 X170.913 Y210.55 E8.67725
G1 X170.139 Y210.709 E8.71667
G1 X169.354 Y210.79 E8.75604
G1 X168.952 Y210.8 E8.7761
G1 X131.049 Y210.8 E10.66709
G1 X130.26 Y210.76 E10.7065
G1 X129.48 Y210.641 E10.74587
G1 X128.715 Y210.443 E10.78529
G1 X127.975 Y210.169 E10.82466
G1 X127.266 Y209.821 E10.86406
G1 X126.595 Y209.403 E10.9035
G1 X125.971 Y208.92 E10.94287
G1 X125.398 Y208.377 E10.98226
G1 X124.883 Y207.778 E11.02167
G1 X124.432 Y207.13 E11.06106
G1 X124.048 Y206.439 E11.10049
G1 X123.736 Y205.714 E11.13987
G1 X123.499 Y204.961 E11.17926
G1 X123.34 Y204.187 E11.21868
G1 X123.259 Y203.402 E11.25805
G1 X123.249 Y203 E11.27811
G1 X123.249 Y151.453 E13.8498
G1 X123.248 Y97 E16.56647
G1 X123.288 Y96.211 E16.60589
G1 X123.407 Y95.431 E16.64525
G1 X123.605 Y94.666 E16.68468
G1 X123.879 Y93.926 E16.72404
G1 X124.227 Y93.217 E16.76345
G1 X124.645 Y92.546 E16.80289
G0 F3600 X125.042 Y92.677
G1 F1800 X125.523 Y92.077 E16.84125
G1 X126.064 Y91.53 E16.87964
G1 X126.659 Y91.042 E16.91803
G1 X127.301 Y90.619 E16.95638
G1 X127.984 Y90.264 E16.99479
G1 X128.699 Y89.983 E17.03311
G1 X129.441 Y89.777 E17.07153
G1 X130.199 Y89.649 E17.10989
G1 X131.048 Y89.6 E17.15231
G1 X168.953 Y89.6 E19.0434
G1 X169.721 Y89.64 E19.08177
G1 X170.481 Y89.759 E19.12015
G1 X171.224 Y89.957 E19.15851
G1 X171.943 Y90.231 E19.1969
G1 X172.629 Y90.578 E19.23525
G1 X173.276 Y90.994 E19.27363
G1 X173.876 Y91.475 E19.31199
G1 X174.423 Y92.016 E19.35037
G1 X174.911 Y92.611 E19.38877
G1 X175.334 Y93.253 E19.42712
G1 X175.689 Y93.936 E19.46553
G1 X175.97 Y94.651 E19.50385
G1 X176.176 Y95.393 E19.54227
G1 X176.304 Y96.151 E19.58062
G1 X176.353 Y97 E19.62305
G1 X176.353 Y151.452 E22.33967
G1 X176.352 Y203 E24.91141
G1 X176.312 Y203.768 E24.94978
G1 X176.193 Y204.528 E24.98816
G1 X175.995 Y205.271 E25.02652
G1 X175.721 Y205.99 E25.06491
G1 X175.374 Y206.676 E25.10326
G1 X174.958 Y207.323 E25.14164
G1 X174.477 Y207.923 E25.18
G1 X173.936 Y208.47 E25.21839
G1 X173.341 Y208.958 E25.25678
G1 X172.699 Y209.381 E25.29514
G1 X172.016 Y209.736 E25.33354
G1 X171.301 Y210.017 E25.37187
G1 X170.559 Y210.223 E25.41028
G1 X169.801 Y210.351 E25.44864
G1 X168.952 Y210.4 E25.49106
G1 X131.049 Y210.4 E27.38205
G1 X130.281 Y210.36 E27.42042
G1 X129.521 Y210.241 E27.4588
G1 X128.778 Y210.043 E27.49716
G1 X128.059 Y209.769 E27.53555
G1 X127.373 Y209.422 E27.5739
G1 X126.726 Y209.006 E27.61228
G1 X126.126 Y208.525 E27.65064
G1 X125.579 Y207.984 E27.68903
G1 X125.091 Y207.389 E27.72742
G1 X124.668 Y206.747 E27.76577
G1 X124.313 Y206.064 E27.80418
G1 X124.032 Y205.349 E27.8425
G1 X123.826 Y204.607 E27.88092
G1 X123.698 Y203.849 E27.91928
G1 X123.649 Y203 E27.9617
G1 X123.649 Y151.453 E30.53339
G1 X123.648 Y97 E33.25006
G1 X123.688 Y96.232 E33.28843
G1 X123.807 Y95.472 E33.32681
G1 X124.005 Y94.729 E33.36517
G1 X124.279 Y94.01 E33.40356
G1 X124.626 Y93.324 E33.44191
G1 X125.042 Y92.677 E33.48029
G0 F3600 X125.44 Y92.811
G1 F1800 X125.919 Y92.237 E33.51759
G1 X126.456 Y91.716 E33.55492
G1 X127.046 Y91.257 E33.59221
G1 X127.682 Y90.862 E33.62956
G1 X128.356 Y90.538 E33.66687
G1 X129.061 Y90.288 E33.70419
G1 X129.789 Y90.114 E33.74153
G1 X130.531 Y90.019 E33.77885
G1 X131.048 Y90 E33.80466
G1 X168.953 Y90 E35.69575
G1 X169.7 Y90.04 E35.73307
G1 X170.438 Y90.159 E35.77037
G1 X171.16 Y90.357 E35.80772
G1 X171.856 Y90.63 E35.84502
G1 X172.519 Y90.977 E35.88235
G1 X173.142 Y91.392 E35.9197
G1 X173.716 Y91.871 E35.957
G1 X174.237 Y92.408 E35.99432
G1 X174.696 Y92.998 E36.03162
G1 X175.091 Y93.634 E36.06897
G1 X175.415 Y94.308 E36.10628
G1 X175.665 Y95.013 E36.1436
G1 X175.839 Y95.741 E36.18094
G1 X175.934 Y96.483 E36.21826
G1 X175.953 Y97 E36.24407
G1 X175.953 Y151.452 E38.96069
G1 X175.952 Y203 E41.53243
G1 X175.912 Y203.747 E41.56975
G1 X175.793 Y204.485 E41.60705
G1 X175.595 Y205.207 E41.6444
G1 X175.322 Y205.903 E41.6817
G1 X174.975 Y206.566 E41.71903
G1 X174.56 Y207.189 E41.75638
G1 X174.081 Y207.763 E41.79368
G1 X173.544 Y208.284 E41.83101
G1 X172.954 Y208.743 E41.8683
G1 X172.318 Y209.138 E41.90565
G1 X171.644 Y209.462 E41.94296
G1 X170.939 Y209.712 E41.98028
G1 X170.211 Y209.886 E42.01762
G1 X169.469 Y209.981 E42.05494
G1 X168.952 Y210 E42.08075
G1 X131.049 Y210 E43.97174
G1 X130.302 Y209.96 E44.00906
G1 X129.564 Y209.841 E44.04636
G1 X128.842 Y209.643 E44.08371
G1 X128.146 Y209.37 E44.12101
G1 X127.483 Y209.023 E44.15834
G1 X126.86 Y208.608 E44.19569
G1 X126.286 Y208.129 E44.23299
G1 X125.765 Y207.592 E44.27031
G1 X125.306 Y207.002 E44.30761
G1 X124.911 Y206.366 E44.34496
G1 X124.587 Y205.692 E44.38227
G1 X124.337 Y204.987 E44.41959
G1 X124.163 Y204.259 E44.45693
G1 X124.068 Y203.517 E44.49425
G1 X124.049 Y203 E44.52006
G1 X124.049 Y151.453 E47.09175
G1 X124.048 Y97 E49.80842
G1 X124.088 Y96.253 E49.84574
G1 X124.207 Y95.515 E49.88304
G1 X124.405 Y94.793 E49.92039
G1 X124.678 Y94.097 E49.95769
G1 X125.025 Y93.434 E49.99502
G1 X125.44 Y92.811 E50.03237
G0 F3600 X125.837 Y92.95
G1 F1800 X126.313 Y92.402 E50.06858
G1 X126.847 Y91.909 E50.10484
G1 X127.432 Y91.479 E50.14106
G1 X128.061 Y91.115 E50.17732
G1 X128.726 Y90.822 E50.21357
G1 X129.419 Y90.604 E50.24982
G1 X130.131 Y90.464 E50.28602
G1 X131.048 Y90.4 E50.33188
G1 X168.953 Y90.4 E52.22297
G1 X169.678 Y90.44 E52.2592
G1 X170.395 Y90.559 E52.29546
G1 X171.094 Y90.757 E52.3317
G1 X171.767 Y91.03 E52.36793
G1 X172.406 Y91.375 E52.40416
G1 X173.003 Y91.789 E52.44041
G1 X173.551 Y92.265 E52.47662
G1 X174.044 Y92.799 E52.51288
G1 X174.474 Y93.384 E52.5491
G1 X174.838 Y94.013 E52.58536
G1 X175.131 Y94.678 E52.62162
G1 X175.349 Y95.371 E52.65786
G1 X175.489 Y96.083 E52.69406
G1 X175.553 Y97 E52.73992
G1 X175.553 Y151.452 E55.45654
G1 X175.552 Y203 E58.02828
G1 X175.512 Y203.725 E58.06451
G1 X175.393 Y204.442 E58.10077
G1 X175.195 Y205.141 E58.13701
G1 X174.922 Y205.814 E58.17325
G1 X174.577 Y206.453 E58.20948
G1 X174.163 Y207.05 E58.24572
G1 X173.687 Y207.598 E58.28194
G1 X173.153 Y208.091 E58.3182
G1 X172.568 Y208.521 E58.35442
G1 X171.939 Y208.885 E58.39067
G1 X171.274 Y209.178 E58.42693
G1 X170.581 Y209.396 E58.46317
G1 X169.869 Y209.536 E58.49938
G1 X168.952 Y209.6 E58.54524
G1 X131.049 Y209.6 E60.43622
G1 X130.324 Y209.56 E60.47245
G1 X129.607 Y209.441 E60.50871
G1 X128.908 Y209.243 E60.54496
G1 X128.235 Y208.97 E60.58119
G1 X127.596 Y208.625 E60.61742
G1 X126.999 Y208.211 E60.65366
G1 X126.451 Y207.735 E60.68988
G1 X125.958 Y207.201 E60.72614
G1 X125.528 Y206.616 E60.76236
G1 X125.164 Y205.987 E60.79862
G1 X124.871 Y205.322 E60.83487
G1 X124.653 Y204.629 E60.87111
G1 X124.513 Y203.917 E60.90732
G1 X124.449 Y203 E60.95318
G1 X124.449 Y151.453 E63.52487
G1 X124.448 Y97 E66.24154
G1 X124.488 Y96.275 E66.27776
G1 X124.607 Y95.558 E66.31402
G1 X124.805 Y94.859 E66.35027
G1 X125.078 Y94.186 E66.3865
G1 X125.423 Y93.547 E66.42273
G1 X125.837 Y92.95 E66.45898
G0 F3600 X125.822 Y93.665
G1 F1800 X126.233 Y93.094 E66.49408
G1 X126.707 Y92.573 E66.52922
G1 X127.237 Y92.109 E66.56436
G1 X127.816 Y91.709 E66.59947
G1 X128.437 Y91.377 E66.6346
G1 X129.091 Y91.117 E66.66971
G1 X129.771 Y90.933 E66.70486
G1 X130.467 Y90.827 E66.73998
G1 X131.048 Y90.8 E66.769
G1 X168.953 Y90.8 E68.66009
G1 X169.656 Y90.84 E68.69522
G1 X170.35 Y90.959 E68.73035
G1 X171.025 Y91.157 E68.76544
G1 X171.674 Y91.429 E68.80055
G1 X172.288 Y91.774 E68.83569
G1 X172.859 Y92.185 E68.87079
G1 X173.38 Y92.659 E68.90593
G1 X173.844 Y93.189 E68.94107
G1 X174.244 Y93.768 E68.97618
G1 X174.576 Y94.389 E69.01131
G1 X174.836 Y95.043 E69.04642
G1 X175.02 Y95.723 E69.08157
G1 X175.126 Y96.419 E69.11669
G1 X175.153 Y97 E69.14571
G1 X175.153 Y151.452 E71.86233
G1 X175.152 Y203 E74.43407
G1 X175.112 Y203.703 E74.4692
G1 X174.993 Y204.397 E74.50433
G1 X174.795 Y205.072 E74.53942
G1 X174.523 Y205.721 E74.57453
G1 X174.178 Y206.335 E74.60967
G1 X173.767 Y206.906 E74.64477
G1 X173.293 Y207.427 E74.67991
G1 X172.763 Y207.891 E74.71505
G1 X172.184 Y208.291 E74.75016
G1 X171.563 Y208.623 E74.78529
G1 X170.909 Y208.883 E74.82041
G1 X170.229 Y209.067 E74.85555
G1 X169.533 Y209.173 E74.89067
G1 X168.952 Y209.2 E74.91969
G1 X131.049 Y209.2 E76.81068
G1 X130.346 Y209.16 E76.84581
G1 X129.652 Y209.041 E76.88094
G1 X128.977 Y208.843 E76.91603
G1 X128.328 Y208.571 E76.95114
G1 X127.714 Y208.226 E76.98628
G1 X127.143 Y207.815 E77.02138
G1 X126.622 Y207.341 E77.05652
G1 X126.158 Y206.811 E77.09166
G1 X125.758 Y206.232 E77.12677
G1 X125.426 Y205.611 E77.1619
G1 X125.166 Y204.957 E77.19701
G1 X124.982 Y204.277 E77.23216
G1 X124.876 Y203.581 E77.26728
G1 X124.849 Y203 E77.2963
G1 X124.849 Y151.453 E79.86799
G1 X124.848 Y97 E82.58466
G1 X124.888 Y96.297 E82.61979
G1 X125.007 Y95.603 E82.65492
G1 X125.205 Y94.928 E82.69002
G1 X125.477 Y94.279 E82.72512
G1 X125.822 Y93.665 E82.76026
G0 F3600 X126.22 Y93.786
G1 F1800 X126.63 Y93.242 E82.79425
G1 X127.101 Y92.751 E82.82819
G1 X127.626 Y92.317 E82.86217
G1 X128.198 Y91.948 E82.89613
G1 X128.81 Y91.649 E82.93012
G1 X129.452 Y91.424 E82.96406
G1 X130.117 Y91.275 E82.99806
G1 X131.048 Y91.2 E83.04465
G1 X168.953 Y91.2 E84.93574
G1 X169.633 Y91.24 E84.96973
G1 X170.303 Y91.359 E85.00368
G1 X170.955 Y91.556 E85.03766
G1 X171.579 Y91.828 E85.07162
G1 X172.167 Y92.172 E85.1056
G1 X172.711 Y92.582 E85.13959
G1 X173.202 Y93.053 E85.17353
G1 X173.636 Y93.578 E85.20752
G1 X174.005 Y94.15 E85.24148
G1 X174.304 Y94.762 E85.27546
G1 X174.529 Y95.404 E85.3094
G1 X174.678 Y96.069 E85.3434
G1 X174.753 Y97 E85.39
G1 X174.753 Y151.452 E88.10662
G1 X174.752 Y203 E90.67836
G1 X174.712 Y203.68 E90.71234
G1 X174.593 Y204.35 E90.74629
G1 X174.396 Y205.002 E90.78027
G1 X174.124 Y205.626 E90.81423
G1 X173.78 Y206.214 E90.84822
G1 X173.37 Y206.758 E90.8822
G1 X172.899 Y207.249 E90.91615
G1 X172.374 Y207.683 E90.95013
G1 X171.802 Y208.052 E90.98409
G1 X171.19 Y208.351 E91.01807
G1 X170.548 Y208.576 E91.05201
G1 X169.883 Y208.725 E91.08601
G1 X168.952 Y208.8 E91.13261
G1 X131.049 Y208.8 E93.0236
G1 X130.369 Y208.76 E93.05758
G1 X129.699 Y208.641 E93.09153
G1 X129.047 Y208.444 E93.12551
G1 X128.423 Y208.172 E93.15947
G1 X127.835 Y207.828 E93.19346
G1 X127.291 Y207.418 E93.22745
G1 X126.8 Y206.947 E93.26139
G1 X126.366 Y206.422 E93.29537
G1 X125.997 Y205.85 E93.32933
G1 X125.698 Y205.238 E93.36332
G1 X125.473 Y204.596 E93.39726
G1 X125.324 Y203.931 E93.43126
G1 X125.249 Y203 E93.47785
G1 X125.249 Y151.453 E96.04954
G1 X125.248 Y97 E98.76622
G1 X125.288 Y96.32 E98.8002
G1 X125.407 Y95.65 E98.83415
G1 X125.604 Y94.998 E98.86813
G1 X125.876 Y94.374 E98.90209
G1 X126.22 Y93.786 E98.93608
G0 F3600 X126.618 Y93.912
G1 F1800 X127.026 Y93.397 E98.96886
G1 X127.493 Y92.935 E99.00163
G1 X128.013 Y92.534 E99.03439
G1 X128.577 Y92.198 E99.06714
G1 X129.179 Y91.934 E99.09994
G1 X129.808 Y91.744 E99.13272
G1 X130.455 Y91.633 E99.16547
G1 X131.048 Y91.6 E99.1951
G1 X168.953 Y91.6 E101.08619
G1 X169.609 Y91.64 E101.11898
G1 X170.255 Y91.759 E101.15175
G1 X170.882 Y91.956 E101.18454
G1 X171.48 Y92.228 E101.21731
G1 X172.041 Y92.57 E101.25009
G1 X172.556 Y92.978 E101.28287
G1 X173.018 Y93.445 E101.31565
G1 X173.419 Y93.965 E101.34841
G1 X173.755 Y94.529 E101.38116
G1 X174.019 Y95.131 E101.41396
G1 X174.209 Y95.76 E101.44674
G1 X174.32 Y96.407 E101.47949
G1 X174.353 Y97 E101.50912
G1 X174.353 Y151.452 E104.22574
G1 X174.352 Y203 E106.79748
G1 X174.312 Y203.656 E106.83027
G1 X174.193 Y204.302 E106.86304
G1 X173.996 Y204.929 E106.89583
G1 X173.724 Y205.527 E106.9286
G1 X173.382 Y206.088 E106.96138
G1 X172.974 Y206.603 E106.99416
G1 X172.507 Y207.065 E107.02694
G1 X171.987 Y207.466 E107.0597
G1 X171.423 Y207.802 E107.09245
G1 X170.821 Y208.066 E107.12524
G1 X170.192 Y208.256 E107.15803
G1 X169.545 Y208.367 E107.19078
G1 X168.952 Y208.4 E107.22041
G1 X131.049 Y208.4 E109.1114
G1 X130.393 Y208.36 E109.14418
G1 X129.747 Y208.241 E109.17696
G1 X129.12 Y208.044 E109.20974
G1 X128.522 Y207.772 E109.24252
G1 X127.961 Y207.43 E109.2753
G1 X127.446 Y207.022 E109.30808
G1 X126.984 Y206.555 E109.34085
G1 X126.583 Y206.035 E109.37361
G1 X126.247 Y205.471 E109.40637
G1 X125.983 Y204.869 E109.43916
G1 X125.793 Y204.24 E109.47194
G1 X125.682 Y203.593 E109.50469
G1 X125.649 Y203 E109.53432
G1 X125.649 Y151.453 E112.10601
G1 X125.648 Y97 E114.82268
G1 X125.688 Y96.344 E114.85547
G1 X125.807 Y95.698 E114.88824
G1 X126.004 Y95.071 E114.92103
G1 X126.276 Y94.473 E114.95381
G1 X126.618 Y93.912 E114.98659
G0 F3600 X127.015 Y94.044
G1 F1800 X127.421 Y93.559 E115.01814
G1 X127.884 Y93.129 E115.04967
G1 X128.398 Y92.76 E115.08124
G1 X128.954 Y92.46 E115.11276
G1 X129.543 Y92.232 E115.14427
G1 X130.157 Y92.08 E115.17582
G1 X131.048 Y92 E115.22045
G1 X168.953 Y92 E117.11154
G1 X169.584 Y92.04 E117.14309
G1 X170.205 Y92.159 E117.17463
G1 X170.805 Y92.356 E117.20614
G1 X171.377 Y92.627 E117.23772
G1 X171.909 Y92.967 E117.26921
G1 X172.394 Y93.373 E117.30077
G1 X172.824 Y93.836 E117.33229
G1 X173.193 Y94.35 E117.36386
G1 X173.493 Y94.906 E117.39538
G1 X173.721 Y95.495 E117.42689
G1 X173.873 Y96.109 E117.45845
G1 X173.953 Y97 E117.50308
G1 X173.953 Y151.452 E120.2197
G1 X173.952 Y203 E122.79144
G1 X173.912 Y203.631 E122.82299
G1 X173.793 Y204.252 E122.85453
G1 X173.596 Y204.852 E122.88604
G1 X173.325 Y205.424 E122.91762
G1 X172.985 Y205.956 E122.94911
G1 X172.579 Y206.441 E122.98067
G1 X172.116 Y206.871 E123.01219
G1 X171.602 Y207.24 E123.04376
G1 X171.046 Y207.54 E123.07528
G1 X170.457 Y207.768 E123.10679
G1 X169.843 Y207.92 E123.13835
G1 X168.952 Y208 E123.18298
G1 X131.049 Y208 E125.07397
G1 X130.418 Y207.96 E125.10551
G1 X129.797 Y207.841 E125.13706
G1 X129.197 Y207.644 E125.16856
