;FLAVOR:Marlin
;TIME:11138
;Filament used: 12.9926m
;Layer height: 0.3
;MINX:120.149
;MINY:70.149
;MINZ:0.3
;MAXX:179.85
;MAXY:229.85
;MAXZ:19.8
;Generated with Cura_SteamEngine 4.2.1
M140 S80
M105
M190 S80
M82 ;absolute extrusion mode
; start_gcode
M117 Start Clean        ; Indicate nozzle clean in progress on LCD
;
M104 S230.0 
M109 S230.0 
M109 R230.0 
;
M107                    ; Turn layer fan off
G21                     ; Set to metric [change to G20 if you want Imperial]
G90                     ; Force coordinates to be absolute relative to the origin
G28                     ; Home X/Y/Z axis
;
G1 X3 Y1 Z15 F9000      ; Move safe Z height to shear strings
G0 X1 Y1 Z0.2 F9000     ; Move in 1mm from edge and up [z] 0.2mm
G92 E0                  ; Set extruder to [0] zero
G1 X100 E12 F500        ; Extrude 30mm filiment along X axis 100mm long to prime and clean the nozzle
G92 E0                  ; Reset extruder to [0] zero end of cleaning run
G1 E-1 F500             ; Retract filiment by 1 mm to reduce string effect
G1 X180 F4000           ; quick wipe away from the filament line / purge
M117 End Clean          ; Indicate nozzle clean in progress on LCD
;
M117 Printing...
; Begin printing with sliced GCode after here
;
M141 S28
G92 E0
G92 E0
G1 F2400 E-6.8
;LAYER_COUNT:66
;LAYER:0
M107
M204 S500
M205 X8 Y8
G0 F3600 X132.3 Y74.237 Z0.3
;TYPE:SKIRT
G1 F2400 E0
G1 F1800 X132.71 Y73.562 E0.0394
G1 X133.187 Y72.933 E0.07879
G1 X133.725 Y72.354 E0.11822
G1 X134.318 Y71.834 E0.15757
G1 X134.962 Y71.375 E0.19702
G1 X135.648 Y70.985 E0.23639
G1 X136.37 Y70.665 E0.27579
G1 X137.121 Y70.42 E0.3152
G1 X137.892 Y70.253 E0.35456
G1 X138.677 Y70.164 E0.39397
G1 X139.16 Y70.149 E0.41808
G1 X160.839 Y70.15 E1.49965
G1 X161.628 Y70.19 E1.53906
G1 X162.409 Y70.31 E1.57849
G1 X163.173 Y70.507 E1.61785
G1 X163.914 Y70.782 E1.65728
G1 X164.623 Y71.129 E1.69666
G1 X165.293 Y71.547 E1.73606
G1 X165.918 Y72.03 E1.77547
G1 X166.49 Y72.574 E1.81485
G1 X167.005 Y73.173 E1.85426
G1 X167.456 Y73.821 E1.89365
G1 X167.84 Y74.511 E1.93305
G1 X168.152 Y75.236 E1.97242
G1 X168.389 Y75.99 E2.01185
G1 X168.548 Y76.763 E2.05123
G1 X168.607 Y77.242 E2.07531
G1 X177.003 Y169.394 E6.69183
G1 X179.816 Y200.247 E8.23748
G1 X179.848 Y200.954 E8.27279
G1 X179.85 Y222.049 E9.32522
G1 X179.81 Y222.838 E9.36463
G1 X179.691 Y223.619 E9.40405
G1 X179.493 Y224.383 E9.44342
G1 X179.219 Y225.124 E9.48284
G1 X178.871 Y225.833 E9.52224
G1 X178.454 Y226.503 E9.56161
G1 X177.971 Y227.128 E9.60102
G1 X177.427 Y227.7 E9.6404
G1 X176.828 Y228.215 E9.67981
G1 X176.18 Y228.667 E9.71923
G1 X175.49 Y229.05 E9.7586
G1 X174.765 Y229.362 E9.79798
G1 X174.011 Y229.599 E9.83741
G1 X173.238 Y229.759 E9.87679
G1 X172.452 Y229.84 E9.91622
G1 X172.05 Y229.85 E9.93628
G1 X170.45 Y229.85 E10.0161
G1 X169.661 Y229.81 E10.05552
G1 X168.881 Y229.691 E10.09488
G1 X168.116 Y229.493 E10.1343
G1 X167.376 Y229.219 E10.17367
G1 X166.667 Y228.871 E10.21308
G1 X165.996 Y228.453 E10.25252
G1 X165.372 Y227.97 E10.29188
G1 X164.799 Y227.427 E10.33127
G1 X164.284 Y226.828 E10.37068
G1 X163.833 Y226.18 E10.41007
G1 X163.449 Y225.489 E10.44951
G1 X163.137 Y224.764 E10.48888
G1 X162.9 Y224.011 E10.52827
G1 X162.741 Y223.237 E10.56769
G1 X162.66 Y222.452 E10.60706
G1 X162.652 Y222.112 E10.62403
G1 X162.081 Y221.902 E10.65438
G1 X161.499 Y221.626 E10.68652
G1 X161.26 Y221.5 E10.7
G1 X160.581 Y221.097 E10.73939
G1 X159.947 Y220.627 E10.77876
G1 X159.6 Y220.325 E10.80171
G1 X159.399 Y220.139 E10.81538
G1 X158.848 Y219.574 E10.85475
G1 X158.356 Y218.956 E10.89416
G1 X158.075 Y218.535 E10.91941
G1 X157.93 Y218.302 E10.9331
G1 X157.547 Y217.611 E10.97252
G1 X157.236 Y216.886 E11.01188
G1 X157.099 Y216.481 E11.03321
G1 X157.02 Y216.225 E11.04657
G1 X156.867 Y215.626 E11.07742
G1 X156.837 Y215.62 E11.07894
G1 X156.072 Y215.425 E11.11833
G1 X155.331 Y215.152 E11.15773
G1 X154.749 Y214.876 E11.18986
G1 X154.51 Y214.75 E11.20334
G1 X153.831 Y214.347 E11.24273
G1 X153.197 Y213.877 E11.28211
G1 X152.85 Y213.575 E11.30506
G1 X152.649 Y213.389 E11.31872
G1 X152.098 Y212.824 E11.35809
G1 X151.606 Y212.206 E11.3975
G1 X151.325 Y211.785 E11.42276
G1 X151.18 Y211.552 E11.43645
G1 X150.797 Y210.861 E11.47586
G1 X150.486 Y210.136 E11.51522
G1 X150.389 Y209.851 E11.53024
G1 X149.611 Y209.85 E11.56906
G1 X149.394 Y210.438 E11.60033
G1 X149.132 Y210.99 E11.63081
G1 X149.007 Y211.228 E11.64422
G1 X148.604 Y211.907 E11.68361
G1 X148.136 Y212.543 E11.72301
G1 X147.825 Y212.9 E11.74663
G1 X147.638 Y213.102 E11.76036
G1 X147.073 Y213.653 E11.79974
G1 X146.455 Y214.145 E11.83915
G1 X146.027 Y214.43 E11.8648
G1 X145.795 Y214.574 E11.87842
G1 X145.104 Y214.956 E11.91781
G1 X144.378 Y215.266 E11.9572
G1 X144 Y215.395 E11.97712
G1 X143.743 Y215.475 E11.99055
G1 X143.126 Y215.633 E12.02233
G1 X143.116 Y215.683 E12.02487
G1 X142.918 Y216.447 E12.06425
G1 X142.644 Y217.188 E12.10366
G1 X142.382 Y217.74 E12.13415
G1 X142.257 Y217.978 E12.14756
G1 X141.854 Y218.657 E12.18695
G1 X141.386 Y219.293 E12.22635
G1 X141.075 Y219.65 E12.24997
G1 X140.888 Y219.852 E12.2637
G1 X140.323 Y220.403 E12.30307
G1 X139.705 Y220.895 E12.34248
G1 X139.277 Y221.18 E12.36814
G1 X139.045 Y221.324 E12.38176
G1 X138.354 Y221.706 E12.42115
G1 X137.628 Y222.016 E12.46054
G1 X137.347 Y222.112 E12.47535
G1 X137.31 Y222.84 E12.51172
G1 X137.19 Y223.621 E12.55114
G1 X136.992 Y224.385 E12.59051
G1 X136.718 Y225.126 E12.62993
G1 X136.37 Y225.835 E12.66933
G1 X135.953 Y226.505 E12.70871
G1 X135.469 Y227.129 E12.7481
G1 X134.926 Y227.702 E12.78749
G1 X134.327 Y228.216 E12.82687
G1 X133.679 Y228.668 E12.86628
G1 X132.988 Y229.051 E12.9057
G1 X132.263 Y229.363 E12.94508
G1 X131.509 Y229.6 E12.98451
G1 X130.736 Y229.759 E13.02388
G1 X129.95 Y229.84 E13.0633
G1 X129.55 Y229.85 E13.08326
G1 X127.95 Y229.85 E13.16309
G1 X127.161 Y229.81 E13.2025
G1 X126.381 Y229.691 E13.24187
G1 X125.616 Y229.493 E13.28129
G1 X124.876 Y229.219 E13.32066
G1 X124.167 Y228.871 E13.36006
G1 X123.496 Y228.453 E13.3995
G1 X122.872 Y227.97 E13.43887
G1 X122.299 Y227.427 E13.47825
G1 X121.784 Y226.828 E13.51767
G1 X121.333 Y226.18 E13.55705
G1 X120.949 Y225.489 E13.59649
G1 X120.637 Y224.764 E13.63587
G1 X120.4 Y224.011 E13.67525
G1 X120.241 Y223.237 E13.71468
G1 X120.16 Y222.452 E13.75405
G1 X120.15 Y222.05 E13.77411
G1 X120.149 Y201.007 E14.82395
G1 X120.181 Y200.299 E14.85931
G1 X131.392 Y77.241 E21.02412
G1 X131.504 Y76.46 E21.06348
G1 X131.693 Y75.693 E21.1029
G1 X131.96 Y74.95 E21.14228
G1 X132.3 Y74.237 E21.18169
G0 F3600 X132.69 Y74.357
G1 F1800 X133.098 Y73.705 E21.22007
G1 X133.571 Y73.099 E21.25842
G1 X134.105 Y72.545 E21.29681
G1 X134.693 Y72.049 E21.33519
G1 X135.33 Y71.617 E21.37358
G1 X136.008 Y71.254 E21.41195
G1 X136.719 Y70.963 E21.45028
G1 X137.458 Y70.747 E21.48869
G1 X138.215 Y70.61 E21.52707
G1 X139.16 Y70.549 E21.57432
G1 X160.839 Y70.55 E22.65589
G1 X161.607 Y70.59 E22.69425
G1 X162.367 Y70.71 E22.73264
G1 X163.111 Y70.907 E22.77104
G1 X163.829 Y71.181 E22.80938
G1 X164.516 Y71.528 E22.84778
G1 X165.163 Y71.944 E22.88615
G1 X165.763 Y72.426 E22.92455
G1 X166.309 Y72.967 E22.9629
G1 X166.797 Y73.561 E23.00125
G1 X167.22 Y74.203 E23.03961
G1 X167.575 Y74.886 E23.07801
G1 X167.857 Y75.602 E23.1164
G1 X168.062 Y76.343 E23.15476
G1 X168.208 Y77.279 E23.20202
G1 X176.604 Y169.431 E27.81855
G1 X179.417 Y200.284 E29.36419
G1 X179.448 Y200.954 E29.39766
G1 X179.45 Y222.049 E30.45009
G1 X179.41 Y222.817 E30.48846
G1 X179.291 Y223.577 E30.52684
G1 X179.093 Y224.321 E30.56525
G1 X178.819 Y225.039 E30.60359
G1 X178.472 Y225.726 E30.64199
G1 X178.056 Y226.373 E30.68036
G1 X177.575 Y226.973 E30.71873
G1 X177.034 Y227.52 E30.75711
G1 X176.44 Y228.007 E30.79543
G1 X175.797 Y228.431 E30.83386
G1 X175.115 Y228.785 E30.87219
G1 X174.399 Y229.067 E30.91058
G1 X173.658 Y229.273 E30.94895
G1 X172.9 Y229.401 E30.98731
G1 X172.05 Y229.45 E31.02978
G1 X170.45 Y229.45 E31.10961
G1 X169.682 Y229.41 E31.14798
G1 X168.922 Y229.291 E31.18635
G1 X168.179 Y229.093 E31.22472
G1 X167.46 Y228.819 E31.2631
G1 X166.774 Y228.472 E31.30146
G1 X166.127 Y228.056 E31.33983
G1 X165.527 Y227.575 E31.3782
G1 X164.98 Y227.034 E31.41658
G1 X164.492 Y226.439 E31.45497
G1 X164.069 Y225.797 E31.49333
G1 X163.714 Y225.114 E31.53173
G1 X163.433 Y224.399 E31.57006
G1 X163.227 Y223.657 E31.60848
G1 X163.099 Y222.899 E31.64683
G1 X163.05 Y222.051 E31.68921
G1 X163.05 Y221.82 E31.70073
G1 X162.922 Y221.787 E31.70733
G1 X162.201 Y221.519 E31.7457
G1 X161.686 Y221.272 E31.7742
G1 X161.447 Y221.146 E31.78768
G1 X160.786 Y220.752 E31.82607
G1 X160.17 Y220.292 E31.86443
G1 X159.872 Y220.031 E31.88419
G1 X159.671 Y219.845 E31.89785
G1 X159.134 Y219.294 E31.93624
G1 X158.658 Y218.691 E31.97456
G1 X158.414 Y218.324 E31.99655
G1 X158.269 Y218.091 E32.01024
G1 X157.897 Y217.418 E32.04861
G1 X157.481 Y216.363 E32.10519
G1 X157.402 Y216.107 E32.11855
G1 X157.214 Y215.361 E32.15693
G1 X157.203 Y215.286 E32.16072
G1 X156.917 Y215.228 E32.17527
G1 X156.172 Y215.037 E32.21364
G1 X155.451 Y214.769 E32.25202
G1 X154.936 Y214.522 E32.28052
G1 X154.697 Y214.396 E32.294
G1 X154.036 Y214.002 E32.33239
G1 X153.42 Y213.542 E32.37074
G1 X153.122 Y213.281 E32.39051
G1 X152.921 Y213.095 E32.40417
G1 X152.384 Y212.544 E32.44255
G1 X151.908 Y211.941 E32.48088
G1 X151.664 Y211.574 E32.50287
G1 X151.519 Y211.341 E32.51656
G1 X151.147 Y210.668 E32.55492
G1 X150.731 Y209.613 E32.6115
G1 X150.681 Y209.451 E32.61996
G1 X149.319 Y209.45 E32.68791
G1 X149.281 Y209.597 E32.69549
G1 X149.011 Y210.317 E32.73385
G1 X148.777 Y210.804 E32.76081
G1 X148.652 Y211.042 E32.77422
G1 X148.26 Y211.703 E32.81256
G1 X147.801 Y212.32 E32.85092
G1 X147.531 Y212.628 E32.87136
G1 X147.344 Y212.83 E32.88509
G1 X146.793 Y213.367 E32.92348
G1 X146.189 Y213.843 E32.96184
G1 X145.816 Y214.09 E32.98416
G1 X145.584 Y214.234 E32.99779
G1 X144.911 Y214.605 E33.03612
G1 X143.881 Y215.013 E33.0914
G1 X143.624 Y215.093 E33.10483
G1 X142.879 Y215.283 E33.14318
G1 X142.788 Y215.296 E33.14777
G1 X142.725 Y215.602 E33.16336
G1 X142.531 Y216.347 E33.20176
G1 X142.261 Y217.067 E33.24013
G1 X142.027 Y217.554 E33.26708
G1 X141.902 Y217.792 E33.28049
G1 X141.51 Y218.453 E33.31884
G1 X141.051 Y219.07 E33.3572
G1 X140.781 Y219.378 E33.37764
G1 X140.594 Y219.58 E33.39137
G1 X140.043 Y220.117 E33.42975
G1 X139.439 Y220.593 E33.46812
G1 X139.066 Y220.84 E33.49044
G1 X138.834 Y220.984 E33.50406
G1 X138.161 Y221.355 E33.5424
G1 X137.131 Y221.763 E33.59767
G1 X136.95 Y221.819 E33.60713
G1 X136.95 Y222.051 E33.6187
G1 X136.91 Y222.819 E33.65707
G1 X136.79 Y223.579 E33.69546
G1 X136.592 Y224.322 E33.73382
G1 X136.319 Y225.041 E33.77219
G1 X135.971 Y225.728 E33.81061
G1 X135.555 Y226.374 E33.84894
G1 X135.074 Y226.974 E33.88731
G1 X134.533 Y227.521 E33.92569
G1 X133.938 Y228.009 E33.96408
G1 X133.296 Y228.432 E34.00244
G1 X132.613 Y228.786 E34.04082
G1 X131.897 Y229.068 E34.07921
G1 X131.156 Y229.274 E34.11758
G1 X130.398 Y229.401 E34.15592
G1 X129.55 Y229.45 E34.1983
G1 X127.95 Y229.45 E34.27813
G1 X127.182 Y229.41 E34.31649
G1 X126.422 Y229.291 E34.35487
G1 X125.679 Y229.093 E34.39323
G1 X124.96 Y228.819 E34.43162
G1 X124.274 Y228.472 E34.46998
G1 X123.627 Y228.056 E34.50835
G1 X123.027 Y227.575 E34.54672
G1 X122.48 Y227.034 E34.5851
G1 X121.992 Y226.439 E34.62349
G1 X121.569 Y225.797 E34.66185
G1 X121.214 Y225.114 E34.70025
G1 X120.933 Y224.399 E34.73858
G1 X120.727 Y223.657 E34.777
G1 X120.599 Y222.899 E34.81535
G1 X120.55 Y222.05 E34.85778
G1 X120.549 Y201.007 E35.90762
G1 X120.58 Y200.336 E35.94113
G1 X131.791 Y77.278 E42.10594
G1 X131.9 Y76.516 E42.14435
G1 X132.088 Y75.77 E42.18273
G1 X132.352 Y75.048 E42.22108
G1 X132.69 Y74.357 E42.25946
G0 F3600 X133.08 Y74.48
G1 F1800 X133.485 Y73.851 E42.29678
G1 X133.955 Y73.269 E42.3341
G1 X134.484 Y72.74 E42.37143
G1 X135.067 Y72.271 E42.40876
G1 X135.696 Y71.866 E42.44608
G1 X136.365 Y71.531 E42.48341
G1 X137.066 Y71.27 E42.52073
G1 X137.79 Y71.084 E42.55802
G1 X138.531 Y70.977 E42.59537
G1 X139.16 Y70.949 E42.62678
G1 X160.839 Y70.95 E43.70835
G1 X161.586 Y70.99 E43.74567
G1 X162.325 Y71.109 E43.78302
G1 X163.046 Y71.307 E43.82032
G1 X163.743 Y71.581 E43.85768
G1 X164.406 Y71.927 E43.895
G1 X165.028 Y72.342 E43.9323
G1 X165.603 Y72.821 E43.96964
G1 X166.123 Y73.358 E44.00693
G1 X166.583 Y73.949 E44.04429
G1 X166.977 Y74.584 E44.08158
G1 X167.301 Y75.259 E44.11893
G1 X167.551 Y75.963 E44.1562
G1 X167.725 Y76.691 E44.19355
G1 X167.81 Y77.315 E44.22496
G1 X176.206 Y169.467 E48.84149
G1 X179.019 Y200.32 E50.38714
G1 X179.048 Y200.954 E50.4188
G1 X179.05 Y222.049 E51.47123
G1 X179.01 Y222.796 E51.50855
G1 X178.891 Y223.535 E51.5459
G1 X178.693 Y224.256 E51.5832
G1 X178.42 Y224.953 E51.62055
G1 X178.074 Y225.616 E51.65786
G1 X177.659 Y226.238 E51.69516
G1 X177.18 Y226.813 E51.7325
G1 X176.642 Y227.333 E51.76983
G1 X176.052 Y227.793 E51.80715
G1 X175.417 Y228.187 E51.84444
G1 X174.742 Y228.512 E51.88181
G1 X174.037 Y228.762 E51.91913
G1 X173.31 Y228.936 E51.95642
G1 X172.568 Y229.031 E51.99375
G1 X172.05 Y229.05 E52.01961
G1 X170.45 Y229.05 E52.09943
G1 X169.703 Y229.01 E52.13675
G1 X168.965 Y228.891 E52.17405
G1 X168.243 Y228.693 E52.2114
G1 X167.547 Y228.42 E52.2487
G1 X166.884 Y228.073 E52.28603
G1 X166.261 Y227.658 E52.32338
G1 X165.687 Y227.179 E52.36067
G1 X165.166 Y226.642 E52.398
G1 X164.707 Y226.052 E52.4353
G1 X164.312 Y225.416 E52.47265
G1 X163.988 Y224.742 E52.50996
G1 X163.738 Y224.037 E52.54728
G1 X163.564 Y223.309 E52.58462
G1 X163.469 Y222.567 E52.62194
G1 X163.45 Y222.051 E52.6477
G1 X163.45 Y221.51 E52.67469
G1 X163.022 Y221.399 E52.69675
G1 X162.322 Y221.135 E52.73407
G1 X161.873 Y220.918 E52.75895
G1 X161.634 Y220.792 E52.77243
G1 X160.991 Y220.408 E52.8098
G1 X160.144 Y219.738 E52.86368
G1 X159.943 Y219.552 E52.87734
G1 X159.422 Y219.015 E52.91467
G1 X158.961 Y218.426 E52.95198
G1 X158.754 Y218.113 E52.97071
G1 X158.609 Y217.88 E52.9844
G1 X158.248 Y217.224 E53.02175
G1 X157.863 Y216.245 E53.07424
G1 X157.784 Y215.989 E53.0876
G1 X157.602 Y215.264 E53.1249
G1 X157.557 Y214.941 E53.14117
G1 X157.361 Y214.91 E53.15107
G1 X156.996 Y214.836 E53.16965
G1 X156.272 Y214.649 E53.20695
G1 X155.572 Y214.385 E53.24428
G1 X155.123 Y214.168 E53.26916
G1 X154.884 Y214.042 E53.28264
G1 X154.241 Y213.658 E53.32
G1 X153.394 Y212.988 E53.37388
G1 X153.193 Y212.802 E53.38754
G1 X152.672 Y212.265 E53.42487
G1 X152.211 Y211.676 E53.46219
G1 X152.004 Y211.363 E53.48091
G1 X151.859 Y211.13 E53.4946
G1 X151.498 Y210.474 E53.53196
G1 X151.113 Y209.495 E53.58444
G1 X151.034 Y209.239 E53.59781
G1 X150.987 Y209.051 E53.60747
G1 X149.01 Y209.05 E53.70611
G1 X148.893 Y209.496 E53.72911
G1 X148.628 Y210.195 E53.76641
G1 X148.423 Y210.618 E53.78986
G1 X148.298 Y210.856 E53.80327
G1 X147.916 Y211.499 E53.84058
G1 X147.238 Y212.356 E53.8951
G1 X147.051 Y212.558 E53.90883
G1 X146.514 Y213.079 E53.94616
G1 X145.925 Y213.54 E53.98348
G1 X145.606 Y213.75 E54.00253
G1 X145.374 Y213.894 E54.01615
G1 X144.718 Y214.254 E54.05349
G1 X143.763 Y214.631 E54.10471
G1 X143.506 Y214.711 E54.11814
G1 X142.78 Y214.895 E54.1555
G1 X142.441 Y214.943 E54.17259
G1 X142.408 Y215.157 E54.18339
G1 X142.333 Y215.522 E54.20198
G1 X142.143 Y216.246 E54.23932
G1 X141.878 Y216.945 E54.27662
G1 X141.673 Y217.368 E54.30007
G1 X141.548 Y217.606 E54.31348
G1 X141.166 Y218.249 E54.35079
G1 X140.488 Y219.106 E54.40531
G1 X140.301 Y219.308 E54.41905
G1 X139.764 Y219.829 E54.45637
G1 X139.175 Y220.29 E54.49369
G1 X138.856 Y220.5 E54.51274
G1 X138.624 Y220.644 E54.52637
G1 X137.968 Y221.004 E54.5637
G1 X137.013 Y221.381 E54.61492
G1 X136.756 Y221.461 E54.62835
G1 X136.55 Y221.513 E54.63895
G1 X136.55 Y222.051 E54.66579
G1 X136.51 Y222.798 E54.70311
G1 X136.39 Y223.537 E54.74046
G1 X136.193 Y224.258 E54.77775
G1 X135.919 Y224.954 E54.81507
G1 X135.573 Y225.617 E54.85238
G1 X135.158 Y226.24 E54.88973
G1 X134.679 Y226.814 E54.92703
G1 X134.141 Y227.334 E54.96436
G1 X133.551 Y227.794 E55.00168
G1 X132.915 Y228.188 E55.03901
G1 X132.241 Y228.512 E55.07632
G1 X131.536 Y228.762 E55.11363
G1 X130.808 Y228.936 E55.15098
G1 X130.066 Y229.031 E55.1883
G1 X129.55 Y229.05 E55.21406
G1 X127.95 Y229.05 E55.29388
