;FLAVOR:Marlin
;TIME:13212
;Filament used: 16.1519m
;Layer height: 0.3
;MINX:88.459
;MINY:88.462
;MINZ:0.3
;MAXX:211.541
;MAXY:211.541
;MAXZ:15.9
;Generated with Cura_SteamEngine 4.2.1
M140 S80
M105
M190 S80
M82 ;absolute extrusion mode
; start_gcode
M117 Start Clean        ; Indicate nozzle clean in progress on LCD
;
M104 S230.0 
M109 S230.0 
M109 R230.0 
;
M107                    ; Turn layer fan off
G21                     ; Set to metric [change to G20 if you want Imperial]
G90                     ; Force coordinates to be absolute relative to the origin
G28                     ; Home X/Y/Z axis
;
G1 X3 Y1 Z15 F9000      ; Move safe Z height to shear strings
G0 X1 Y1 Z0.2 F9000     ; Move in 1mm from edge and up [z] 0.2mm
G92 E0                  ; Set extruder to [0] zero
G1 X100 E12 F500        ; Extrude 30mm filiment along X axis 100mm long to prime and clean the nozzle
G92 E0                  ; Reset extruder to [0] zero end of cleaning run
G1 E-1 F500             ; Retract filiment by 1 mm to reduce string effect
G1 X180 F4000           ; quick wipe away from the filament line / purge
M117 End Clean          ; Indicate nozzle clean in progress on LCD
;
M117 Printing...
; Begin printing with sliced GCode after here
;
M141 S28
G92 E0
G92 E0
G1 F2400 E-6.8
;LAYER_COUNT:53
;LAYER:0
M107
M204 S500
M205 X8 Y8
G0 F3600 X106.714 Y106.258 Z0.3
;TYPE:SKIRT
G1 F2400 E0
G1 F1800 X110.656 Y102.678 E0.26567
G1 X111.253 Y102.187 E0.30423
G1 X115.492 Y99.043 E0.56753
G1 X116.129 Y98.618 E0.60574
G1 X120.609 Y95.933 E0.86631
G1 X121.277 Y95.575 E0.90413
G1 X126.088 Y93.294 E1.16976
G1 X126.802 Y92.998 E1.20832
G1 X131.77 Y91.22 E1.47157
G1 X132.504 Y90.997 E1.50984
G1 X137.57 Y89.729 E1.77038
G1 X138.312 Y89.582 E1.80812
G1 X143.581 Y88.795 E2.07391
G1 X144.351 Y88.718 E2.11251
G1 X149.568 Y88.462 E2.3731
G1 X150.325 Y88.462 E2.41087
G1 X155.642 Y88.718 E2.67645
G1 X156.41 Y88.793 E2.71494
G1 X161.58 Y89.559 E2.97569
G1 X162.326 Y89.707 E3.01363
G1 X167.491 Y90.996 E3.27922
G1 X168.23 Y91.22 E3.31775
G1 X173.198 Y92.998 E3.581
G1 X173.905 Y93.291 E3.61918
G1 X178.627 Y95.524 E3.87977
G1 X179.296 Y95.881 E3.9176
G1 X183.865 Y98.614 E4.18322
G1 X184.508 Y99.043 E4.22178
G1 X188.705 Y102.156 E4.48248
G1 X189.291 Y102.637 E4.52031
G1 X193.201 Y106.174 E4.78335
G1 X193.742 Y106.714 E4.82148
G1 X197.288 Y110.618 E5.08461
G1 X197.775 Y111.209 E5.12281
G1 X200.952 Y115.484 E5.38854
G1 X201.382 Y116.127 E5.42713
G1 X204.068 Y120.609 E5.68782
G1 X204.425 Y121.278 E5.72565
G1 X206.684 Y126.043 E5.98874
G1 X206.978 Y126.75 E6.02694
G1 X208.76 Y131.716 E6.29016
G1 X208.982 Y132.447 E6.32828
G1 X210.281 Y137.61 E6.59389
G1 X210.433 Y138.369 E6.63251
G1 X211.199 Y143.537 E6.89316
G1 X211.273 Y144.29 E6.9309
G1 X211.54 Y149.608 E7.19655
G1 X211.541 Y150.381 E7.23512
G1 X211.285 Y155.599 E7.49576
G1 X211.211 Y156.355 E7.53366
G1 X210.434 Y161.625 E7.79942
G1 X210.284 Y162.381 E7.83787
G1 X209.016 Y167.447 E8.09841
G1 X208.796 Y168.173 E8.13626
G1 X207.025 Y173.14 E8.39935
G1 X206.731 Y173.85 E8.43768
G1 X204.478 Y178.622 E8.70096
G1 X204.119 Y179.296 E8.73906
G1 X201.412 Y183.822 E9.00217
G1 X200.987 Y184.459 E9.04037
G1 X197.848 Y188.699 E9.30357
G1 X197.363 Y189.291 E9.34175
G1 X193.826 Y193.201 E9.60479
G1 X193.286 Y193.742 E9.64293
G1 X189.344 Y197.322 E9.90859
G1 X188.747 Y197.813 E9.94716
G1 X184.549 Y200.927 E10.20793
G1 X183.918 Y201.349 E10.2458
G1 X179.397 Y204.064 E10.5089
G1 X178.723 Y204.425 E10.54704
G1 X173.912 Y206.706 E10.81268
G1 X173.198 Y207.002 E10.85124
G1 X168.23 Y208.78 E11.11449
G1 X167.496 Y209.003 E11.15276
G1 X162.43 Y210.271 E11.4133
G1 X161.687 Y210.419 E11.4511
G1 X156.468 Y211.198 E11.71436
G1 X155.708 Y211.273 E11.75246
G1 X150.391 Y211.54 E12.01806
G1 X149.617 Y211.541 E12.05667
G1 X144.35 Y211.282 E12.31976
G1 X143.589 Y211.207 E12.35791
G1 X138.369 Y210.433 E12.62119
G1 X137.619 Y210.284 E12.65934
G1 X132.553 Y209.016 E12.91988
G1 X131.826 Y208.795 E12.95779
G1 X126.809 Y207.005 E13.22354
G1 X126.094 Y206.71 E13.26213
G1 X121.372 Y204.476 E13.52274
G1 X120.704 Y204.119 E13.56053
G1 X116.135 Y201.386 E13.82615
G1 X115.492 Y200.957 E13.86471
G1 X111.294 Y197.843 E14.12548
G1 X110.708 Y197.362 E14.1633
G1 X106.797 Y193.824 E14.42642
G1 X106.256 Y193.284 E14.46455
G1 X102.677 Y189.343 E14.73015
G1 X102.187 Y188.747 E14.76864
G1 X99.073 Y184.55 E15.02937
G1 X98.65 Y183.917 E15.06735
G1 X95.91 Y179.353 E15.33294
G1 X95.546 Y178.674 E15.37137
G1 X93.289 Y173.904 E15.63464
G1 X92.995 Y173.194 E15.67298
G1 X91.237 Y168.276 E15.93355
G1 X91.018 Y167.553 E15.97124
G1 X89.719 Y162.39 E16.23685
G1 X89.567 Y161.63 E16.27551
G1 X88.801 Y156.46 E16.53626
G1 X88.727 Y155.708 E16.57396
G1 X88.46 Y150.392 E16.83951
G1 X88.459 Y149.619 E16.87808
G1 X88.715 Y144.401 E17.13872
G1 X88.789 Y143.645 E17.17661
G1 X89.566 Y138.375 E17.44238
G1 X89.716 Y137.619 E17.48083
G1 X90.984 Y132.553 E17.74137
G1 X91.204 Y131.827 E17.77922
G1 X92.975 Y126.86 E18.0423
G1 X93.269 Y126.15 E18.08064
G1 X95.522 Y121.378 E18.34392
G1 X95.88 Y120.705 E18.38195
G1 X98.586 Y116.179 E18.64503
G1 X99.013 Y115.54 E18.68337
G1 X102.153 Y111.3 E18.9466
G1 X102.637 Y110.709 E18.98471
G1 X106.174 Y106.799 E19.24775
G1 X106.714 Y106.258 E19.28589
G0 F3600 X106.983 Y106.554
G1 F1800 X110.925 Y102.974 E19.55155
G1 X111.492 Y102.508 E19.58817
G1 X115.731 Y99.364 E19.85147
G1 X116.335 Y98.961 E19.8877
G1 X120.815 Y96.276 E20.14828
G1 X121.449 Y95.936 E20.18417
G1 X126.26 Y93.655 E20.4498
G1 X126.936 Y93.375 E20.48631
G1 X131.904 Y91.597 E20.74955
G1 X132.601 Y91.385 E20.7859
G1 X137.667 Y90.117 E21.04644
G1 X138.371 Y89.977 E21.08225
G1 X143.64 Y89.19 E21.34804
G1 X144.37 Y89.118 E21.38464
G1 X149.587 Y88.862 E21.64523
G1 X150.306 Y88.862 E21.6811
G1 X155.623 Y89.118 E21.94667
G1 X156.352 Y89.189 E21.98321
G1 X161.522 Y89.955 E22.24396
G1 X162.229 Y90.095 E22.27992
G1 X167.394 Y91.384 E22.5455
G1 X168.096 Y91.597 E22.5821
G1 X173.064 Y93.375 E22.84535
G1 X173.734 Y93.652 E22.88152
G1 X178.456 Y95.885 E23.14212
G1 X179.091 Y96.224 E23.17803
G1 X183.66 Y98.957 E23.44365
G1 X184.269 Y99.364 E23.48019
G1 X188.466 Y102.477 E23.74089
G1 X189.022 Y102.933 E23.77677
G1 X192.932 Y106.47 E24.03981
G1 X193.446 Y106.983 E24.07604
G1 X196.992 Y110.887 E24.33916
G1 X197.453 Y111.448 E24.37539
G1 X200.63 Y115.723 E24.64111
G1 X201.038 Y116.333 E24.67773
G1 X203.724 Y120.815 E24.93841
G1 X204.064 Y121.449 E24.97431
G1 X206.323 Y126.214 E25.2374
G1 X206.601 Y126.885 E25.27363
G1 X208.383 Y131.851 E25.53685
G1 X208.594 Y132.544 E25.57299
G1 X209.893 Y137.707 E25.83861
G1 X210.037 Y138.428 E25.87529
G1 X210.803 Y143.596 E26.13594
G1 X210.874 Y144.31 E26.17173
G1 X211.141 Y149.628 E26.43738
G1 X211.141 Y150.362 E26.474
G1 X210.885 Y155.58 E26.73464
G1 X210.815 Y156.296 E26.77054
G1 X210.038 Y161.566 E27.0363
G1 X209.896 Y162.284 E27.07281
G1 X208.628 Y167.35 E27.33335
G1 X208.419 Y168.038 E27.36923
G1 X206.648 Y173.005 E27.63231
G1 X206.37 Y173.679 E27.66869
G1 X204.117 Y178.451 E27.93196
G1 X203.776 Y179.09 E27.9681
G1 X201.069 Y183.616 E28.23121
G1 X200.665 Y184.221 E28.2675
G1 X197.526 Y188.461 E28.5307
G1 X197.067 Y189.022 E28.56686
G1 X193.53 Y192.932 E28.8299
G1 X193.017 Y193.446 E28.86613
G1 X189.075 Y197.026 E29.1318
G1 X188.509 Y197.491 E29.16834
G1 X184.311 Y200.605 E29.42911
G1 X183.712 Y201.006 E29.46508
G1 X179.191 Y203.721 E29.72818
G1 X178.551 Y204.064 E29.7644
G1 X173.74 Y206.345 E30.03004
G1 X173.064 Y206.625 E30.06654
G1 X168.096 Y208.403 E30.32979
G1 X167.399 Y208.615 E30.36614
G1 X162.333 Y209.883 E30.62668
G1 X161.628 Y210.023 E30.66254
G1 X156.409 Y210.802 E30.9258
G1 X155.688 Y210.874 E30.96195
G1 X150.371 Y211.141 E31.22755
G1 X149.637 Y211.141 E31.26417
G1 X144.37 Y210.882 E31.52726
G1 X143.648 Y210.811 E31.56345
G1 X138.428 Y210.037 E31.82673
G1 X137.716 Y209.896 E31.86294
G1 X132.65 Y208.628 E32.12348
G1 X131.96 Y208.419 E32.15945
G1 X126.943 Y206.629 E32.4252
G1 X126.265 Y206.348 E32.46182
G1 X121.543 Y204.114 E32.72243
G1 X120.909 Y203.776 E32.75828
G1 X116.34 Y201.043 E33.02389
G1 X115.73 Y200.635 E33.0605
G1 X111.532 Y197.521 E33.32127
G1 X110.977 Y197.066 E33.35708
G1 X107.066 Y193.528 E33.62019
G1 X106.552 Y193.015 E33.65642
G1 X102.973 Y189.074 E33.92202
G1 X102.508 Y188.508 E33.95856
G1 X99.394 Y184.311 E34.21929
G1 X98.993 Y183.711 E34.2553
G1 X96.253 Y179.147 E34.52088
G1 X95.908 Y178.503 E34.55733
G1 X93.651 Y173.733 E34.8206
G1 X93.372 Y173.059 E34.85699
G1 X91.614 Y168.141 E35.11756
G1 X91.406 Y167.456 E35.15327
G1 X90.107 Y162.293 E35.41888
G1 X89.963 Y161.572 E35.45556
G1 X89.197 Y156.402 E35.71631
G1 X89.126 Y155.688 E35.75211
G1 X88.859 Y150.372 E36.01766
G1 X88.859 Y149.638 E36.05428
G1 X89.115 Y144.42 E36.31492
G1 X89.185 Y143.704 E36.35081
G1 X89.962 Y138.434 E36.61658
G1 X90.104 Y137.716 E36.65309
G1 X91.372 Y132.65 E36.91363
G1 X91.581 Y131.962 E36.9495
G1 X93.352 Y126.995 E37.21259
G1 X93.63 Y126.321 E37.24896
G1 X95.883 Y121.549 E37.51224
G1 X96.224 Y120.911 E37.54833
G1 X98.93 Y116.385 E37.81141
G1 X99.334 Y115.778 E37.84779
G1 X102.474 Y111.538 E38.11102
G1 X102.933 Y110.978 E38.14714
G1 X106.47 Y107.068 E38.41018
G1 X106.983 Y106.554 E38.44641
G0 F3600 X107.252 Y106.85
G1 F1800 X111.194 Y103.27 E38.71208
G1 X111.73 Y102.83 E38.74668
G1 X115.969 Y99.686 E39.00998
G1 X116.54 Y99.304 E39.04426
G1 X121.02 Y96.619 E39.30483
G1 X121.62 Y96.298 E39.33878
G1 X126.431 Y94.017 E39.60441
G1 X127.071 Y93.751 E39.63899
G1 X132.039 Y91.973 E39.90224
G1 X132.698 Y91.773 E39.9366
G1 X137.764 Y90.505 E40.19714
G1 X138.43 Y90.373 E40.23101
G1 X143.699 Y89.586 E40.4968
G1 X144.39 Y89.517 E40.53145
G1 X149.607 Y89.261 E40.79204
G1 X150.287 Y89.261 E40.82596
G1 X155.604 Y89.517 E41.09154
G1 X156.293 Y89.585 E41.12608
G1 X161.463 Y90.351 E41.38683
G1 X162.132 Y90.483 E41.42085
G1 X167.297 Y91.772 E41.68643
G1 X167.961 Y91.973 E41.72104
G1 X172.929 Y93.751 E41.98429
G1 X173.563 Y94.014 E42.01854
G1 X178.285 Y96.247 E42.27913
G1 X178.885 Y96.568 E42.31308
G1 X183.454 Y99.301 E42.5787
G1 X184.031 Y99.686 E42.6133
G1 X188.228 Y102.799 E42.874
G1 X188.754 Y103.23 E42.90793
G1 X192.664 Y106.767 E43.17097
G1 X193.15 Y107.252 E43.20523
G1 X196.696 Y111.156 E43.46835
G1 X197.132 Y111.687 E43.50263
G1 X200.309 Y115.962 E43.76835
G1 X200.695 Y116.539 E43.80299
G1 X203.381 Y121.021 E44.06368
G1 X203.702 Y121.62 E44.09758
G1 X205.961 Y126.385 E44.36067
G1 X206.225 Y127.02 E44.39498
G1 X208.007 Y131.986 E44.6582
G1 X208.206 Y132.642 E44.6924
G1 X209.505 Y137.805 E44.95801
G1 X209.641 Y138.487 E44.99271
G1 X210.407 Y143.655 E45.25336
G1 X210.474 Y144.33 E45.2872
G1 X210.741 Y149.648 E45.55285
G1 X210.742 Y150.342 E45.58747
G1 X210.486 Y155.56 E45.84811
G1 X210.419 Y156.238 E45.8821
G1 X209.642 Y161.508 E46.14787
G1 X209.508 Y162.187 E46.1824
G1 X208.24 Y167.253 E46.44294
G1 X208.042 Y167.904 E46.47688
G1 X206.271 Y172.871 E46.73997
G1 X206.008 Y173.509 E46.7744
G1 X203.755 Y178.281 E47.03767
G1 X203.432 Y178.885 E47.07185
G1 X200.725 Y183.411 E47.33495
G1 X200.344 Y183.983 E47.36924
G1 X197.205 Y188.223 E47.63244
G1 X196.77 Y188.754 E47.66668
G1 X193.233 Y192.664 E47.92973
G1 X192.748 Y193.15 E47.96398
G1 X188.806 Y196.73 E48.22965
G1 X188.27 Y197.17 E48.26425
G1 X184.072 Y200.284 E48.52501
G1 X183.506 Y200.663 E48.559
G1 X178.985 Y203.378 E48.8221
G1 X178.38 Y203.702 E48.85634
G1 X173.569 Y205.983 E49.12197
G1 X172.929 Y206.249 E49.15655
G1 X167.961 Y208.027 E49.4198
G1 X167.302 Y208.227 E49.45416
G1 X162.236 Y209.495 E49.7147
G1 X161.569 Y209.627 E49.74862
G1 X156.35 Y210.406 E50.01188
G1 X155.668 Y210.474 E50.04607
G1 X150.351 Y210.741 E50.31168
G1 X149.656 Y210.742 E50.34635
G1 X144.389 Y210.483 E50.60944
G1 X143.706 Y210.415 E50.64368
G1 X138.486 Y209.641 E50.90696
G1 X137.813 Y209.508 E50.94118
G1 X132.747 Y208.24 E51.20172
G1 X132.095 Y208.042 E51.23572
G1 X127.078 Y206.252 E51.50147
G1 X126.436 Y205.987 E51.53612
G1 X121.714 Y203.753 E51.79674
G1 X121.115 Y203.432 E51.83064
G1 X116.546 Y200.699 E52.09626
G1 X115.969 Y200.314 E52.13086
G1 X111.771 Y197.2 E52.39163
G1 X111.245 Y196.769 E52.42556
G1 X107.334 Y193.231 E52.68867
G1 X106.848 Y192.746 E52.72293
G1 X103.269 Y188.805 E52.98852
G1 X102.829 Y188.27 E53.02308
G1 X99.715 Y184.073 E53.28381
G1 X99.335 Y183.505 E53.31791
G1 X96.595 Y178.941 E53.58349
G1 X96.27 Y178.332 E53.61793
G1 X94.013 Y173.562 E53.8812
G1 X93.748 Y172.924 E53.91567
G1 X91.99 Y168.006 E54.17623
G1 X91.794 Y167.358 E54.21001
G1 X90.495 Y162.195 E54.47562
G1 X90.359 Y161.513 E54.51031
G1 X89.593 Y156.343 E54.77106
G1 X89.526 Y155.668 E54.8049
G1 X89.259 Y150.352 E55.07045
G1 X89.258 Y149.658 E55.10507
G1 X89.514 Y144.44 E55.36572
G1 X89.581 Y143.762 E55.39971
G1 X90.358 Y138.492 E55.66547
G1 X90.492 Y137.813 E55.7
G1 X91.76 Y132.747 E55.96054
G1 X91.958 Y132.096 E55.99449
G1 X93.729 Y127.129 E56.25757
G1 X93.992 Y126.491 E56.292
G1 X96.245 Y121.719 E56.55528
G1 X96.567 Y121.116 E56.58938
G1 X99.273 Y116.59 E56.85246
G1 X99.656 Y116.016 E56.88689
G1 X102.796 Y111.776 E57.15012
G1 X103.23 Y111.246 E57.18429
G1 X106.767 Y107.336 E57.44733
G1 X107.252 Y106.85 E57.48159
G0 F3600 X107.521 Y107.146
G1 F1800 X111.463 Y103.566 E57.74725
G1 X111.968 Y103.151 E57.77987
G1 X116.207 Y100.007 E58.04317
G1 X116.746 Y99.647 E58.07551
G1 X121.226 Y96.962 E58.33608
G1 X121.791 Y96.659 E58.36807
G1 X126.602 Y94.378 E58.6337
G1 X127.206 Y94.128 E58.66631
G1 X132.174 Y92.35 E58.92956
G1 X132.795 Y92.162 E58.96193
G1 X137.861 Y90.894 E59.22247
G1 X138.489 Y90.768 E59.25443
G1 X143.758 Y89.981 E59.52022
G1 X144.41 Y89.917 E59.5529
G1 X149.627 Y89.661 E59.81349
G1 X150.267 Y89.661 E59.84542
G1 X155.584 Y89.917 E60.111
G1 X156.234 Y89.98 E60.14358
G1 X161.404 Y90.746 E60.40432
G1 X162.035 Y90.871 E60.43642
G1 X167.2 Y92.16 E60.702
G1 X167.826 Y92.35 E60.73464
G1 X172.794 Y94.128 E60.99789
G1 X173.392 Y94.376 E61.03019
G1 X178.114 Y96.609 E61.29078
G1 X178.68 Y96.911 E61.32279
G1 X183.249 Y99.644 E61.58841
G1 X183.793 Y100.007 E61.62103
G1 X187.99 Y103.12 E61.88173
G1 X188.486 Y103.526 E61.91371
G1 X192.396 Y107.063 E62.17675
G1 X192.854 Y107.52 E62.20903
G1 X196.4 Y111.424 E62.47216
G1 X196.811 Y111.925 E62.50449
G1 X199.988 Y116.2 E62.77021
G1 X200.352 Y116.744 E62.80287
G1 X203.038 Y121.226 E63.06356
G1 X203.341 Y121.792 E63.09559
G1 X205.6 Y126.557 E63.35867
G1 X205.848 Y127.155 E63.39097
G1 X207.63 Y132.121 E63.6542
G1 X207.819 Y132.74 E63.68649
G1 X209.118 Y137.903 E63.9521
G1 X209.246 Y138.545 E63.98476
G1 X210.012 Y143.713 E64.24541
G1 X210.075 Y144.35 E64.27734
G1 X210.342 Y149.668 E64.54299
G1 X210.342 Y150.322 E64.57562
G1 X210.086 Y155.54 E64.83626
G1 X210.023 Y156.18 E64.86834
G1 X209.246 Y161.45 E65.13411
G1 X209.119 Y162.09 E65.16666
G1 X207.851 Y167.156 E65.4272
G1 X207.666 Y167.77 E65.45919
G1 X205.895 Y172.737 E65.72228
G1 X205.646 Y173.338 E65.75473
G1 X203.393 Y178.11 E66.01801
G1 X203.089 Y178.68 E66.05024
G1 X200.382 Y183.206 E66.31335
G1 X200.023 Y183.745 E66.34566
G1 X196.884 Y187.985 E66.60885
G1 X196.474 Y188.486 E66.64115
G1 X192.937 Y192.396 E66.90419
G1 X192.479 Y192.854 E66.93651
G1 X188.537 Y196.434 E67.20217
G1 X188.032 Y196.849 E67.23478
G1 X183.834 Y199.963 E67.49555
G1 X183.3 Y200.32 E67.5276
G1 X178.779 Y203.035 E67.7907
G1 X178.209 Y203.341 E67.82298
G1 X173.398 Y205.622 E68.08861
G1 X172.794 Y205.872 E68.12122
G1 X167.826 Y207.65 E68.38447
G1 X167.205 Y207.838 E68.41684
G1 X162.139 Y209.106 E68.67738
G1 X161.51 Y209.232 E68.70939
G1 X156.291 Y210.011 E68.97265
G1 X155.648 Y210.075 E69.00489
G1 X150.331 Y210.342 E69.27049
G1 X149.676 Y210.342 E69.30317
G1 X144.409 Y210.083 E69.56625
G1 X143.765 Y210.02 E69.59854
G1 X138.545 Y209.246 E69.86181
G1 X137.91 Y209.119 E69.89412
G1 X132.844 Y207.851 E70.15466
G1 X132.229 Y207.665 E70.18671
G1 X127.212 Y205.875 E70.45247
G1 X126.607 Y205.625 E70.48513
G1 X121.885 Y203.391 E70.74574
G1 X121.32 Y203.089 E70.7777
G1 X116.751 Y200.356 E71.04332
G1 X116.207 Y199.993 E71.07595
G1 X112.009 Y196.879 E71.33672
G1 X111.513 Y196.472 E71.36873
G1 X107.602 Y192.934 E71.63184
G1 X107.144 Y192.477 E71.66412
G1 X103.565 Y188.536 E71.92972
G1 X103.151 Y188.032 E71.96226
